X:262
T:Bridge of Lodi
O:No 262 William Clarke of Feltwell
M:4/4
L:1/8
N:In m.s. bar line between B1 and B2 omitted.
K:C
ED|C2(c2c2)(Bc)|dBGBc2cd|ecec fdfd|geAd cBAG|C2(c2c2)(Bc)|dBGB c2Bc| dBdB cAGF|G2G2G2:||:/
ef|gfed cBAG|F2F2F2(fg)|agfe dcBA|G2G2G2ef|gege afaf|gege afaf|gefd ecdB|c2c2c2:|

